2d9
albertroad.htmlalbertroad.htmlalbertroad.htmlalbertroad.htmlalbertroad.htmlalbertroad.htmlalbertroad.html<P ALIGN=Right>Colin Farrell
albertroad.htmlalbertroad.html

T:Natterjack's Reel
M:C|
L:1/8
C:Colin Farrell
R:reel
D:Flook: Rubai
Z:Devin McCabe
K:A
E2 A/2B/2c decB|Acea gece|d~B3 Bcde|~f2fa gecA|
!E2 A/2B/2c decB|Acea gece|d~B3 Bcdf|1ecBd cAAF:|2ecBd cAAf|
!:fece a2 f/2f/2f|efc2 BcAF|~E3F ABcd-|dBcA Bcdf|
!fece a2 f/2f/2f|efc2 BcAF|~E3F ABcf|1ecBd cAAf:|2ecBd cAAF||



albertroad.htmlalbertroad.htmlalbertroad.htmlalbertroad.htmlalbertroad.htmlalbertroad.html
0

